X: 2109
T: Atholl Highlanders, The
R: jig
M: 6/8
K: Amixolydian
|:e2> e2>cA|e>cA B>cd|e3 e>cA|B>cd c>BA|
e3 e>cA|e>cA B>cd|c<ae f>ed|c<dB A2 c/d/:|
|:E|A>ce A>ce|B>d=g B>d=g|A>ce A>ce|B>cd c>BA|
A>ce A>ce|B>d=g B>d=g|A<ae f>ed|c<dB A2:|
|:e|a>ee e>dc|a>ee e>dc|a>ee e>dc|B>cd c>BA|
a>ee e>dc|a>ee e>dc|c<ae f>ed|c<dB A2:|
|:A/B/|c>Ac c>Ac|d>Bd d>Bd|c>Ac c>Ac|B>=GB d>cB|
c>Ac c>Ac|d>Bd d>cB|c<ae f>ed|c<dB A2:|

